symbols/web/nights_stay/materialsymbolsrounded/nights_stay_wght100grad200_48px.svg

<svg xmlns="http://www.w3.org/2000/svg" height="48" width="48"><path d="M24.25 42.2q-1.4 0-3.325-.325Q19 41.55 17.7 40.9q.3-.05.825-.45.525-.4.675-.65.95.4 2.2.525 1.25.125 2.95.125 2.8 0 5.5-1t4.9-2.7q-4.55-1.45-8-4.25t-5.625-6.525Q18.95 22.25 18.25 17.8q-.7-4.45.25-9.2-4.85 1.95-7.825 6.525Q7.7 19.7 7.95 25.5q-.45.05-.925.1-.475.05-.775.2-.35-2.75.25-5.675T8.65 14.6q1.55-2.6 4.025-4.675Q15.15 7.85 18.45 6.75q1-.3 1.6.3.6.6.25 1.75-1 5-.25 9.225t2.875 7.575q2.125 3.35 5.35 5.775Q31.5 33.8 35.5 35.15q1.15.4 1.4 1.125t-.45 1.425q-2.95 2.45-6.075 3.475T24.25 42.2Zm-10.1-3.3h-6q-2.05 0-3.475-1.4Q3.25 36.1 3.25 34t1.425-3.5Q6.1 29.1 8.15 29.1q1.55 0 2.875 1.125T13 33.1h1.15q1.2 0 2.05.85.85.85.85 2.05 0 1.2-.85 2.05-.85.85-2.05.85Zm6.9-14.3Z"/></svg>

<svg xmlns="http://www.w3.org/2000/svg" height="48" width="48"><path d="M24.25 42.2Q22.85 42.2 20.925 41.875Q19 41.55 17.7 40.9Q18 40.85 18.525 40.45Q19.05 40.05 19.2 39.8Q20.15 40.2 21.4 40.325Q22.65 40.45 24.35 40.45Q27.15 40.45 29.85 39.45Q32.55 38.45 34.75 36.75Q30.2 35.3 26.75 32.5Q23.3 29.7 21.125 25.975Q18.95 22.25 18.25 17.8Q17.55 13.35 18.5 8.6Q13.65 10.55 10.675 15.125Q7.7 19.7 7.95 25.5Q7.5 25.55 7.025 25.6Q6.55 25.65 6.25 25.8Q5.9 23.05 6.5 20.125Q7.1 17.2 8.65 14.6Q10.2 12 12.675 9.925Q15.15 7.85 18.45 6.75Q19.45 6.45 20.05 7.05Q20.65 7.65 20.3 8.8Q19.3 13.8 20.05 18.025Q20.8 22.25 22.925 25.6Q25.05 28.95 28.275 31.375Q31.5 33.8 35.5 35.15Q36.65 35.55 36.9 36.275Q37.15 37 36.45 37.7Q33.5 40.15 30.375 41.175Q27.25 42.2 24.25 42.2ZM14.15 38.9H8.15Q6.1 38.9 4.675 37.5Q3.25 36.1 3.25 34Q3.25 31.9 4.675 30.5Q6.1 29.1 8.15 29.1Q9.7 29.1 11.025 30.225Q12.35 31.35 13 33.1H14.15Q15.35 33.1 16.2 33.95Q17.05 34.8 17.05 36Q17.05 37.2 16.2 38.05Q15.35 38.9 14.15 38.9ZM21.05 24.6Q21.05 24.6 21.05 24.6Q21.05 24.6 21.05 24.6Q21.05 24.6 21.05 24.6Q21.05 24.6 21.05 24.6Q21.05 24.6 21.05 24.6Q21.05 24.6 21.05 24.6Q21.05 24.6 21.05 24.6Q21.05 24.6 21.05 24.6Q21.05 24.6 21.05 24.6Q21.05 24.6 21.05 24.6Q21.05 24.6 21.05 24.6Q21.05 24.6 21.05 24.6Q21.05 24.6 21.05 24.6Q21.05 24.6 21.05 24.6Q21.05 24.6 21.05 24.6Q21.05 24.6 21.05 24.6Z"/></svg>
